X: 42686
T: Whistler At The Wake, The
R: jig
M: 6/8
K: Dmajor
|:F2A AFA|Bcd efg|fed B3|AFE E3|
F2A AFA|Bcd efg|fed B3|AFD D2:|
|:fed B3|AFE EDB|A3 ABF|ABF Ade|
fed B3|AFE EFA|D3 BdA|FGE D3:|

